X: 2
T: Al Hanisim
T: To the miracles
M: 2/4
L: 1/8
K: Em
"A"\
|:"Em" z e2 d | B2 G2 | "Am"A A2 G | "D"E2 F2 \
| "G"G G2 G | "Am"A2 "(Em)"G2 | "B7"B B2 B | ^c2 ^d>e |
| "Em"ee ed | B2 AG | "Am"AA AG | "D"E2 F2 \
| "G"GG GB | "D"AF DF | "Em"E4- | E4 :|
"B"\
|:"Em"e2 f2 | g2 e2 | "Am"a a2 g | "D"f2 d2 \
| "Bm"d d2 e | f2 d2 | "C"e e2 f | g2 e>e |
| "Em"ee ef | g2 ee | "Am"aa ag | "D"f2 d2 \
| "Bm"dd dd | de fd | "Em"e4- | e4 :|
"Bridge"\
[|"Gm"Gd zd | ^cd dz | de =fe | d^c d_B \
| "Gm"Gd zd | ^cd ef | g z3 | "D"d z3 |
| "Gm"Gd zd | ^cd dz | d^c dB | "Am"Ac "F#7"B^A \
| "B7"B^A zB | =AG F2 | "Em"E4- | E4 |]
